static/icons/twitter.svg

<svg width="48" height="48" viewBox="0 0 48 48" fill="none" xmlns="http://www.w3.org/2000/svg">
<path d="M42.1142 14.3613C42.1328 14.7837 42.1328 15.1869 42.1328 15.6093C42.1513 28.4158 32.7424 43.1998 15.5359 43.1998C10.461 43.1998 5.47867 41.683 1.2002 38.8414C1.94106 38.9374 2.68192 38.9758 3.42278 38.9758C7.62717 38.9758 11.7204 37.5166 15.0358 34.8094C11.0351 34.7326 7.51604 32.0254 6.29361 28.0702C7.70125 28.3582 9.14593 28.3006 10.5165 27.8974C6.16396 27.0142 3.03383 23.0397 3.0153 18.4125C3.0153 18.3741 3.0153 18.3357 3.0153 18.2973C4.31181 19.0461 5.77501 19.4685 7.25673 19.5069C3.16348 16.6653 1.88549 11.0013 4.36738 6.56609C9.12741 12.6333 16.1285 16.3005 23.6483 16.7037C22.8889 13.3437 23.9261 9.8109 26.3524 7.43009C30.1123 3.76288 36.0392 3.95488 39.5953 7.85249C41.6883 7.43009 43.7071 6.62369 45.5407 5.49088C44.8369 7.73729 43.3737 9.6381 41.429 10.8477C43.2811 10.6173 45.0962 10.0989 46.8002 9.3309C45.5407 11.2893 43.9479 12.9789 42.1142 14.3613Z" fill="#1D9BF0"/>
</svg>

<svg width="48" height="48" fill="none" xmlns="http://www.w3.org/2000/svg"><path d="M42.114 14.361c.019.423.019.826.019 1.248.018 12.807-9.39 27.59-26.597 27.59-5.075 0-10.057-1.516-14.336-4.358.741.096 1.482.135 2.223.135 4.204 0 8.297-1.46 11.613-4.167-4-.076-7.52-2.784-8.742-6.739a8.732 8.732 0 0 0 4.223-.173c-4.353-.883-7.483-4.857-7.502-9.484v-.116a8.972 8.972 0 0 0 4.242 1.21C3.163 16.665 1.885 11 4.367 6.567c4.76 6.066 11.761 9.733 19.281 10.137-.76-3.36.278-6.893 2.704-9.274 3.76-3.667 9.687-3.475 13.243.422a18.186 18.186 0 0 0 5.946-2.361c-.704 2.246-2.167 4.147-4.112 5.357A18.726 18.726 0 0 0 46.8 9.33a19.536 19.536 0 0 1-4.686 5.03Z" fill="#1D9BF0"/></svg>
